X: 37811
T: Sonny Brogan's
R: jig
M: 6/8
K: Adorian
e|:cAB cBc|dcd ede|AcA c (3cde|dcA AGA|
EAB cBc|d^cd ede|aba ged|cAE A3:|
d|:eaa aba|gef ged|e2a aba|ged cAA|
eaa aba|gef gfg|a3 ged|(3cBA E A3:|

